X:1
T:Praeludium
T:Praeludium
T:(Prelude) BWV 928
T:Johann Sebastian Bach
C:Johann Sebastian Bach
%%score 1 2 3 4
L:1/8
M:4/4
K:F
V:1 treble 
V:2 treble 
V:3 bass 
V:4 bass 
V:1
 z/ F/c/a/ B/G/c/G/ PA ffe | f cff g/d/=B/G/ ee | e/A/c/e/ x2 x4 | A/F/A/c/ f2- f/f/e-e/e/d- | %4
 d/G/c- c/c=B/ c c'c'=b | c'/c/e/g/ x2 x4 | x4 A/F/B/d/ x2 | F dd^c d/D/F/A/ G/E/A/E/ | %8
 F/D/F/A/ d/A/B/G/ ^F/D/F/A/ x2 | B/D/G/B/ x2 ^G/E/G/=B/ x2 | x c=BB eAGG | %11
 cF=EE A/D/E/F/ z/ F/E/D/ | z/ F/G/A/ z/ A/G/F/ z/ A/=B/c/ z/ c/B/A/ | %13
 ^G/E/G/=B/ x2 F/D/F/A/ d/G/F/G/ | E/C/E/G/ c2- c/c/=B B/B/A- | A/A/^G/A/ =Bc dc/d/ B>A | %16
 A/E/A/=B/ c2 x4 | x4 x gg^f | g x x4 E/d/c/B/ | A ffe f/F/A/c/ B/G/c/G/ | %20
 A/F/A/c/ dd d/B/G/E/ cc | c/D/F/A/ d/G/F/G/ E/C/E/G/ c/F/E/F/ | D/B,/D/F/ B2- B/B/A- A/A/G- | %23
 G/C/F- F/FE/ F4 |] %24
V:2
 x4 x [Ac][Gd][Gc] | [Fc] z z [Ad] [=Bd]/ x/ x z [Gc] | [Ac]/ x/ x a/d/c/d/ =B/G/B/d/ d/c/B/c/ | %3
 x2 z/ =B/c/d/ G>G F>F | E>E DF E [eg][da][dg] | [cg]/ x/ x f/d/g/d/ e/c/f/a/ d/_b/a/b/ | %6
 c/A/d/f/ B/g/f/g/ x2 G/e/d/e/ | x [FA][EB][EA] [DA]/ x/ x x2 | x4 x2 d/B/c/A/ | %9
 x2 d/B/c/A/ x2 e/c/d/B/ | c AA^G =G^F=FE | _EDD^C =C z =B, z | C z D z E z F z | x2 e/A/=G/A/ x4 | %14
 x2 z/ A/F/E/ D>D C>C | =B,2 ^G/E/A/E/ =B/E/A G2 | x2 z/ A/_B/=G/ ^F/A/D/F/ A/c/B/A/ | %17
 B/G/B/d/ c/A/d/A/ B [Bd][A_e][Ad] | [Gd] b/a/ g/=f/=e/d/ c/e/G/a/ x2 | %19
 x [CA][Gd][Gc] [Fc]/ x/ x x2 | x2 z [FB] [GB]/ x/ x z [EA] | [FA]/ x/ x x2 x4 | %22
 x2 z/ E/F/G/ C>C B,>B, | A,>A, G,[B,C] [A,C]4 |] %24
V:3
 x8 | x8 | z2 z [DA] [G,D]2 z [G,C] | [F,C] x x2 x4 | x8 | x E D2 C2 B,2 | A,2 G,2 F,2 E,2 | %7
 z4 z [F,A,][E,B,][E,A,] | [D,A,] x x2 x4 | x8 | %10
 x2 D,/=B,,/E,/B,,/ ^C,/E,/D,/=C,/ B,,/G,,/C,/G,,/ | %11
 A,,/C,/=B,,/A,,/ ^G,,/E,,/A,,/E,,/ ^F,, z G,, z | A,, z =B,, z C, z x2 | x8 | %14
 C,=B,,A,,G,, ^F,,^G,,A,,C, | x2 z/ C,/=B,,/A,,/ ^G,,A,,E,E,, | A,,2 x2 x4 | x8 | x8 | %19
 F,/F,,/A,,/C,/ B,,/G,,/C,/G,,/ A,, [A,C][G,D][G,C] | [F,C]/ x/ x x2 x4 | x8 | x8 | %23
 F,A,,B,,C, F,,4 |] %24
V:4
 z4 z/ F,/A,/C/ B,/G,/C/G,/ | A,/C/A,/F,/ D,/D/C/D/ G,/=B,/G,/A,/ C,/C/B,/C/ | F,2 z F, F,2 z E, | %3
 E,EDC =B,CA,B, | CE,F,G, z/ C,/E,/G,/ F,/D,/G,/D,/ | E,C- C_B,- B,A,-A,G,- | %6
 G,F,-F,E,- E,D,-D,^C, | z/ D,/F,/A,/ G,/E,/A,/E,/ F, D,D,^C, | D, z z D =CA,^F,D, | %9
 G, z =F, z E,/F,/E,/D,/ C,/A,/=B,,/^G,/ | A,/A,,/C,/E,/ x2 x4 | x8 | x4 x2 D, z | %13
 E,D,^C,A, D,=C,=B,,G, | x8 | D,2 x2 x4 | x2 z A, D,E,^F,D, | G,G- G^F G/G,/B,/D/ C/A,/D/A,/ | %18
 B,/D,/G,/A,/ B,/G,/A,/=F,/ E,/G,/C,/E,/ G,/B,/A,/G,/ | x4 x F,F,E, | %20
 F,/A,/F,/D,/ B,,/B,/A,/B,/ E,/G,/E,/C,/ A,,/A,/G,/A,/ | D,CB,G, C,B,A,F, | D,A,G,F, E,F,D,E, | %23
 x8 |] %24

